Cobalt/scalable/mimetypes/application-x-ms-dos-executable.svg

<?xml version="1.0" encoding="UTF-8" standalone="no"?>
<!-- Created with Inkscape (http://www.inkscape.org/) -->

<svg
   width="64"
   height="64"
   viewBox="0 0 16.933333 16.933334"
   version="1.1"
   id="svg5"
   inkscape:version="1.1.1 (3bf5ae0d25, 2021-09-20, custom)"
   sodipodi:docname="application-x-executable.svg"
   xmlns:inkscape="http://www.inkscape.org/namespaces/inkscape"
   xmlns:sodipodi="http://sodipodi.sourceforge.net/DTD/sodipodi-0.dtd"
   xmlns:xlink="http://www.w3.org/1999/xlink"
   xmlns="http://www.w3.org/2000/svg"
   xmlns:svg="http://www.w3.org/2000/svg">
  <sodipodi:namedview
     id="namedview7"
     pagecolor="#ffffff"
     bordercolor="#666666"
     borderopacity="1.0"
     inkscape:pageshadow="2"
     inkscape:pageopacity="0.0"
     inkscape:pagecheckerboard="0"
     inkscape:document-units="px"
     showgrid="false"
     units="px"
     height="64px"
     inkscape:zoom="8"
     inkscape:cx="40.25"
     inkscape:cy="34.0625"
     inkscape:window-width="1920"
     inkscape:window-height="996"
     inkscape:window-x="0"
     inkscape:window-y="0"
     inkscape:window-maximized="1"
     inkscape:current-layer="svg5" />
  <defs
     id="defs2">
    <linearGradient
       inkscape:collect="always"
       id="linearGradient1394">
      <stop
         style="stop-color:#1088d6;stop-opacity:1;"
         offset="0"
         id="stop1390" />
      <stop
         style="stop-color:#076cbe;stop-opacity:1"
         offset="1"
         id="stop1392" />
    </linearGradient>
    <linearGradient
       inkscape:collect="always"
       xlink:href="#linearGradient1394"
       id="linearGradient1396"
       x1="8.2020836"
       y1="4.8947916"
       x2="8.2020826"
       y2="13.361459"
       gradientUnits="userSpaceOnUse" />
  </defs>
  <path
     id="rect261617"
     style="fill:#797774;stroke-width:0.214833;stroke-linecap:round;stroke-linejoin:round"
     d="M 1.5875001,2.6458335 H 15.345833 c 0.586317,0 1.058334,0.4720167 1.058334,1.0583334 V 13.758334 c 0,0.586316 -0.472017,1.058333 -1.058334,1.058333 H 1.5875001 c -0.5863167,0 -1.0583334,-0.472017 -1.0583334,-1.058333 V 3.7041669 c 0,-0.5863167 0.4720167,-1.0583334 1.0583334,-1.0583334 z" />
  <path
     id="rect261619"
     style="fill:#fafafa;stroke-width:0.789524;stroke-linecap:round;stroke-linejoin:round"
     d="M 5 14 C 3.8919998 14 3 14.892 3 16 L 3 52 C 3 53.662002 4.338 55 6 55 L 58 55 C 59.661998 55 61 53.662002 61 52 L 61 16 C 61 14.892 60.107999 14 59 14 L 5 14 z "
     transform="scale(0.26458334)" />
  <path
     id="rect261621"
     style="fill:url(#linearGradient1396);stroke-width:0.254794;stroke-linecap:round;stroke-linejoin:round;fill-opacity:1"
     d="m 6.3500001,4.7625 h 4.2333329 c 0.439738,0 0.79375,0.3540125 0.79375,0.79375 v 7.143751 c 0,0.439737 -0.354012,0.79375 -0.79375,0.79375 H 6.3500001 c -0.4397375,0 -0.79375,-0.354013 -0.79375,-0.79375 V 5.55625 c 0,-0.4397375 0.3540125,-0.79375 0.79375,-0.79375 z"
     sodipodi:nodetypes="sssssssss" />
  <path
     id="rect845"
     style="fill:#bebebe;fill-opacity:1;stroke-width:0.869511;stroke-linecap:round;stroke-linejoin:round"
     d="M 1.5875,4.7625001 V 5.0270835 H 4.7625001 V 4.7625001 Z m 0,1.0583334 V 6.0854168 H 4.7625001 V 5.8208335 Z m 0,1.0583333 V 7.1437502 H 4.7625001 V 6.8791668 Z m 0,1.0583334 V 8.2020835 H 4.7625001 V 7.9375002 Z m 0,1.0583334 V 9.2604169 H 4.7625001 V 8.9958336 Z m 0,1.0583334 v 0.264583 h 3.1750001 v -0.264583 z m 0,1.058333 v 0.264584 H 4.7625001 V 11.1125 Z m 0,1.058334 v 0.264583 h 3.1750001 v -0.264583 z" />
  <path
     id="rect845-3"
     style="fill:#bebebe;fill-opacity:1;stroke-width:0.869511;stroke-linecap:round;stroke-linejoin:round"
     d="m 12.170835,4.7625001 v 0.2645834 h 3.175002 V 4.7625001 Z m 0,1.0583334 v 0.2645833 h 3.175002 V 5.8208335 Z m 0,1.0583333 v 0.2645834 h 3.175002 V 6.8791668 Z m 0,1.0583334 v 0.2645833 h 3.175002 V 7.9375002 Z m 0,1.0583334 v 0.2645833 h 3.175002 V 8.9958336 Z m 0,1.0583334 v 0.264583 h 3.175002 v -0.264583 z m 0,1.058333 v 0.264583 h 3.175002 V 11.1125 Z m 0,1.058334 v 0.264583 h 3.175002 v -0.264583 z" />
  <path
     id="rect1066"
     style="fill:#c4c4c4;fill-opacity:1;stroke-width:0.79375;stroke-linecap:round;stroke-linejoin:round"
     d="m 12.7,2.9104167 v 0.5291667 h 0.529167 V 2.9104167 Z m 1.058334,0 v 0.5291667 h 0.529167 V 2.9104167 Z m 1.058333,0 v 0.5291667 h 0.529167 V 2.9104167 Z" />
</svg>

<?xml version="1.0" encoding="UTF-8" standalone="no"?>
<!-- Created with Inkscape (http://www.inkscape.org/) -->

<svg
   width="64"
   height="64"
   viewBox="0 0 16.933333 16.933334"
   version="1.1"
   id="svg5"
   inkscape:version="1.2.1 (9c6d41e410, 2022-07-14, custom)"
   sodipodi:docname="application-x-ms-dos-executable.svg"
   xmlns:inkscape="http://www.inkscape.org/namespaces/inkscape"
   xmlns:sodipodi="http://sodipodi.sourceforge.net/DTD/sodipodi-0.dtd"
   xmlns:xlink="http://www.w3.org/1999/xlink"
   xmlns="http://www.w3.org/2000/svg"
   xmlns:svg="http://www.w3.org/2000/svg">
  <sodipodi:namedview
     id="namedview7"
     pagecolor="#ffffff"
     bordercolor="#666666"
     borderopacity="1.0"
     inkscape:pageshadow="2"
     inkscape:pageopacity="0.0"
     inkscape:pagecheckerboard="0"
     inkscape:document-units="px"
     showgrid="false"
     units="px"
     height="64px"
     inkscape:zoom="8"
     inkscape:cx="33.6875"
     inkscape:cy="34.1875"
     inkscape:window-width="1920"
     inkscape:window-height="1029"
     inkscape:window-x="0"
     inkscape:window-y="0"
     inkscape:window-maximized="1"
     inkscape:current-layer="svg5"
     inkscape:showpageshadow="2"
     inkscape:deskcolor="#d1d1d1" />
  <defs
     id="defs2">
    <linearGradient
       inkscape:collect="always"
       id="linearGradient1394">
      <stop
         style="stop-color:#1088d6;stop-opacity:1;"
         offset="0"
         id="stop1390" />
      <stop
         style="stop-color:#076cbe;stop-opacity:1"
         offset="1"
         id="stop1392" />
    </linearGradient>
    <linearGradient
       inkscape:collect="always"
       xlink:href="#linearGradient1394"
       id="linearGradient1396"
       x1="8.2020836"
       y1="4.8947916"
       x2="8.2020826"
       y2="13.361459"
       gradientUnits="userSpaceOnUse" />
  </defs>
  <path
     id="rect261617"
     style="fill:#797774;stroke-width:0.214833;stroke-linecap:round;stroke-linejoin:round"
     d="M 1.5875001,2.6458335 H 15.345833 c 0.586317,0 1.058334,0.4720167 1.058334,1.0583334 V 13.758334 c 0,0.586316 -0.472017,1.058333 -1.058334,1.058333 H 1.5875001 c -0.5863167,0 -1.0583334,-0.472017 -1.0583334,-1.058333 V 3.7041669 c 0,-0.5863167 0.4720167,-1.0583334 1.0583334,-1.0583334 z" />
  <path
     id="rect261619"
     style="fill:#fafafa;stroke-width:0.789524;stroke-linecap:round;stroke-linejoin:round"
     d="M 5 14 C 3.8919998 14 3 14.892 3 16 L 3 52 C 3 53.662002 4.338 55 6 55 L 58 55 C 59.661998 55 61 53.662002 61 52 L 61 16 C 61 14.892 60.107999 14 59 14 L 5 14 z "
     transform="scale(0.26458334)" />
  <path
     id="rect261621"
     style="fill:url(#linearGradient1396);stroke-width:0.254794;stroke-linecap:round;stroke-linejoin:round;fill-opacity:1"
     d="m 6.3500001,4.7625 h 4.2333329 c 0.439738,0 0.79375,0.3540125 0.79375,0.79375 v 7.143751 c 0,0.439737 -0.354012,0.79375 -0.79375,0.79375 H 6.3500001 c -0.4397375,0 -0.79375,-0.354013 -0.79375,-0.79375 V 5.55625 c 0,-0.4397375 0.3540125,-0.79375 0.79375,-0.79375 z"
     sodipodi:nodetypes="sssssssss" />
  <path
     id="rect845"
     style="fill:#bebebe;fill-opacity:1;stroke-width:0.869511;stroke-linecap:round;stroke-linejoin:round"
     d="M 1.5875 4.7625 L 1.5875 5.0270834 L 4.7625 5.0270834 L 4.7625 4.7625 L 1.5875 4.7625 z M 12.170833 4.7625 L 12.170833 5.0270834 L 15.345833 5.0270834 L 15.345833 4.7625 L 12.170833 4.7625 z M 1.5875 5.8208334 L 1.5875 6.0854167 L 4.7625 6.0854167 L 4.7625 5.8208334 L 1.5875 5.8208334 z M 12.170833 5.8208334 L 12.170833 6.0854167 L 15.345833 6.0854167 L 15.345833 5.8208334 L 12.170833 5.8208334 z M 1.5875 6.8791667 L 1.5875 7.1437501 L 4.7625 7.1437501 L 4.7625 6.8791667 L 1.5875 6.8791667 z M 12.170833 6.8791667 L 12.170833 7.1437501 L 15.345833 7.1437501 L 15.345833 6.8791667 L 12.170833 6.8791667 z M 1.5875 7.9375001 L 1.5875 8.2020834 L 4.7625 8.2020834 L 4.7625 7.9375001 L 1.5875 7.9375001 z M 12.170833 7.9375001 L 12.170833 8.2020834 L 15.345833 8.2020834 L 15.345833 7.9375001 L 12.170833 7.9375001 z M 1.5875 8.9958334 L 1.5875 9.2604168 L 4.7625 9.2604168 L 4.7625 8.9958334 L 1.5875 8.9958334 z M 12.170833 8.9958334 L 12.170833 9.2604168 L 15.345833 9.2604168 L 15.345833 8.9958334 L 12.170833 8.9958334 z M 1.5875 10.054167 L 1.5875 10.31875 L 4.7625 10.31875 L 4.7625 10.054167 L 1.5875 10.054167 z M 12.170833 10.054167 L 12.170833 10.31875 L 15.345833 10.31875 L 15.345833 10.054167 L 12.170833 10.054167 z M 1.5875 11.1125 L 1.5875 11.377083 L 4.7625 11.377083 L 4.7625 11.1125 L 1.5875 11.1125 z M 12.170833 11.1125 L 12.170833 11.377083 L 15.345833 11.377083 L 15.345833 11.1125 L 12.170833 11.1125 z M 1.5875 12.170833 L 1.5875 12.435417 L 4.7625 12.435417 L 4.7625 12.170833 L 1.5875 12.170833 z M 12.170833 12.170833 L 12.170833 12.435417 L 15.345833 12.435417 L 15.345833 12.170833 L 12.170833 12.170833 z " />
  <path
     id="rect1066"
     style="fill:#c4c4c4;fill-opacity:1;stroke-width:0.79375;stroke-linecap:round;stroke-linejoin:round"
     d="m 12.7,2.9104167 v 0.5291667 h 0.529167 V 2.9104167 Z m 1.058334,0 v 0.5291667 h 0.529167 V 2.9104167 Z m 1.058333,0 v 0.5291667 h 0.529167 V 2.9104167 Z" />
</svg>
